carriers/postPl.svg

<svg width="128" height="64" viewBox="0 0 128 64" fill="none" xmlns="http://www.w3.org/2000/svg">
<rect width="128" height="64" rx="6" fill="#E3282B"/>
<path d="M22.9331 54.8288V45.5041H25.8702C26.5641 45.5041 27.182 45.5944 27.7238 45.775C28.2656 45.9556 28.6933 46.255 29.007 46.6733C29.3206 47.0915 29.4775 47.6618 29.4775 48.3842C29.4775 49.0686 29.3206 49.6341 29.007 50.0809C28.6933 50.5276 28.2703 50.8603 27.738 51.0789C27.2057 51.2976 26.6021 51.4069 25.9273 51.4069H24.587V54.8288H22.9331ZM24.587 50.0809H25.7989C27.1677 50.0809 27.8521 49.5153 27.8521 48.3842C27.8521 47.7949 27.6715 47.3909 27.3103 47.1723C26.9586 46.9442 26.4358 46.8301 25.7419 46.8301H24.587V50.0809Z" fill="white"/>
<path d="M33.6346 54.9999C33.0548 54.9999 32.513 54.8573 32.0092 54.5721C31.5055 54.2775 31.0967 53.8592 30.7831 53.3174C30.4694 52.7661 30.3126 52.1055 30.3126 51.3356C30.3126 50.5561 30.4694 49.8955 30.7831 49.3537C31.0967 48.8024 31.5055 48.3842 32.0092 48.099C32.513 47.8044 33.0548 47.657 33.6346 47.657C34.224 47.657 34.7705 47.8044 35.2743 48.099C35.7781 48.3842 36.1868 48.8024 36.5005 49.3537C36.8142 49.8955 36.971 50.5561 36.971 51.3356C36.971 52.1055 36.8142 52.7661 36.5005 53.3174C36.1868 53.8592 35.7781 54.2775 35.2743 54.5721C34.7705 54.8573 34.224 54.9999 33.6346 54.9999ZM33.6346 53.6596C34.1479 53.6596 34.5519 53.4457 34.8466 53.018C35.1412 52.5903 35.2886 52.0295 35.2886 51.3356C35.2886 50.6322 35.1412 50.0666 34.8466 49.6389C34.5519 49.2112 34.1479 48.9973 33.6346 48.9973C33.1214 48.9973 32.7174 49.2112 32.4227 49.6389C32.1376 50.0666 31.995 50.6322 31.995 51.3356C31.995 52.0295 32.1376 52.5903 32.4227 53.018C32.7174 53.4457 33.1214 53.6596 33.6346 53.6596Z" fill="white"/>
<path d="M41.5168 54.9999C40.88 54.9999 40.3049 54.8573 39.7916 54.5721C39.2878 54.2775 38.8839 53.8592 38.5797 53.3174C38.285 52.7661 38.1377 52.1055 38.1377 51.3356C38.1377 50.5561 38.2993 49.8955 38.6225 49.3537C38.9456 48.8024 39.3734 48.3842 39.9057 48.099C40.4475 47.8044 41.0273 47.657 41.6451 47.657C42.0919 47.657 42.4816 47.7331 42.8143 47.8852C43.147 48.0373 43.4416 48.2226 43.6983 48.4412L42.8998 49.5106C42.7192 49.349 42.5339 49.2254 42.3438 49.1399C42.1537 49.0448 41.9493 48.9973 41.7307 48.9973C41.1699 48.9973 40.7089 49.2112 40.3477 49.6389C39.996 50.0666 39.8201 50.6322 39.8201 51.3356C39.8201 52.0295 39.9912 52.5903 40.3334 53.018C40.6851 53.4457 41.1366 53.6596 41.6879 53.6596C41.9636 53.6596 42.2202 53.6026 42.4578 53.4885C42.705 53.365 42.9283 53.2224 43.1279 53.0608L43.7981 54.1444C43.4749 54.4295 43.1137 54.6434 42.7145 54.786C42.3152 54.9286 41.916 54.9999 41.5168 54.9999Z" fill="white"/>
<path d="M44.6238 54.8288V53.9448L47.9316 49.1256H44.9945V47.8281H49.9848V48.6979L46.6912 53.517H50.0988V54.8288H44.6238Z" fill="white"/>
<path d="M53.9678 54.9999C53.1599 54.9999 52.5848 54.767 52.2426 54.3012C51.9099 53.826 51.7436 53.2129 51.7436 52.462V49.1256H50.7456V47.8994L51.8292 47.8281L52.0288 45.9176H53.3975V47.8281H55.1798V49.1256H53.3975V52.462C53.3975 53.2794 53.7254 53.6881 54.3813 53.6881C54.5049 53.6881 54.6332 53.6739 54.7663 53.6454C54.8993 53.6073 55.0134 53.5693 55.1085 53.5313L55.3936 54.7432C55.2035 54.8098 54.9849 54.8668 54.7378 54.9143C54.5001 54.9713 54.2435 54.9999 53.9678 54.9999Z" fill="white"/>
<path d="M58.0434 54.9999C57.435 54.9999 56.936 54.8098 56.5463 54.4295C56.1661 54.0493 55.976 53.5551 55.976 52.9467C55.976 52.1958 56.3039 51.616 56.9598 51.2073C57.6156 50.789 58.6612 50.5039 60.0965 50.3518C60.087 49.9811 59.9872 49.6627 59.7971 49.3965C59.6165 49.1209 59.2886 48.983 58.8133 48.983C58.4711 48.983 58.1337 49.0496 57.801 49.1826C57.4778 49.3157 57.1594 49.4773 56.8457 49.6674L56.2469 48.5696C56.6366 48.3224 57.0738 48.1085 57.5586 47.9279C58.0529 47.7473 58.5757 47.657 59.127 47.657C60.0014 47.657 60.6526 47.9184 61.0803 48.4412C61.5175 48.9545 61.7362 49.7007 61.7362 50.6797V54.8288H60.3817L60.2676 54.0588H60.2106C59.8969 54.325 59.5594 54.5484 59.1982 54.729C58.8466 54.9096 58.4616 54.9999 58.0434 54.9999ZM58.5709 53.7166C58.8561 53.7166 59.1127 53.6501 59.3408 53.517C59.5785 53.3745 59.8303 53.1844 60.0965 52.9467V51.3784C59.146 51.5019 58.4854 51.6873 58.1147 51.9344C57.7439 52.172 57.5586 52.4667 57.5586 52.8184C57.5586 53.1321 57.6536 53.3602 57.8438 53.5028C58.0339 53.6454 58.2762 53.7166 58.5709 53.7166Z" fill="white"/>
<path d="M66.6953 54.8288V45.5041H69.6325C70.3263 45.5041 70.9442 45.5944 71.486 45.775C72.0278 45.9556 72.4555 46.255 72.7692 46.6733C73.0829 47.0915 73.2397 47.6618 73.2397 48.3842C73.2397 49.0686 73.0829 49.6341 72.7692 50.0809C72.4555 50.5276 72.0325 50.8603 71.5002 51.0789C70.9679 51.2976 70.3644 51.4069 69.6895 51.4069H68.3492V54.8288H66.6953ZM68.3492 50.0809H69.5612C70.9299 50.0809 71.6143 49.5153 71.6143 48.3842C71.6143 47.7949 71.4337 47.3909 71.0725 47.1723C70.7208 46.9442 70.198 46.8301 69.5041 46.8301H68.3492V50.0809Z" fill="white"/>
<path d="M77.3969 54.9999C76.8171 54.9999 76.2753 54.8573 75.7715 54.5721C75.2677 54.2775 74.859 53.8592 74.5453 53.3174C74.2316 52.7661 74.0748 52.1055 74.0748 51.3356C74.0748 50.5561 74.2316 49.8955 74.5453 49.3537C74.859 48.8024 75.2677 48.3842 75.7715 48.099C76.2753 47.8044 76.8171 47.657 77.3969 47.657C77.9862 47.657 78.5328 47.8044 79.0365 48.099C79.5403 48.3842 79.949 48.8024 80.2627 49.3537C80.5764 49.8955 80.7332 50.5561 80.7332 51.3356C80.7332 52.1055 80.5764 52.7661 80.2627 53.3174C79.949 53.8592 79.5403 54.2775 79.0365 54.5721C78.5328 54.8573 77.9862 54.9999 77.3969 54.9999ZM77.3969 53.6596C77.9102 53.6596 78.3141 53.4457 78.6088 53.018C78.9035 52.5903 79.0508 52.0295 79.0508 51.3356C79.0508 50.6322 78.9035 50.0666 78.6088 49.6389C78.3141 49.2112 77.9102 48.9973 77.3969 48.9973C76.8836 48.9973 76.4796 49.2112 76.185 49.6389C75.8998 50.0666 75.7572 50.6322 75.7572 51.3356C75.7572 52.0295 75.8998 52.5903 76.185 53.018C76.4796 53.4457 76.8836 53.6596 77.3969 53.6596Z" fill="white"/>
<path d="M83.9531 54.9999C83.3732 54.9999 82.9598 54.824 82.7126 54.4723C82.475 54.1206 82.3562 53.6406 82.3562 53.0323V44.7627H83.9958V53.1178C83.9958 53.3174 84.0338 53.46 84.1099 53.5456C84.1859 53.6216 84.2667 53.6596 84.3523 53.6596C84.3903 53.6596 84.4236 53.6596 84.4521 53.6596C84.4901 53.6501 84.5424 53.6406 84.6089 53.6311L84.8228 54.8573C84.7277 54.8953 84.6042 54.9286 84.4521 54.9571C84.3095 54.9856 84.1432 54.9999 83.9531 54.9999Z" fill="white"/>
<path d="M88.1803 54.9999C87.705 54.9999 87.2298 54.9096 86.7545 54.729C86.2792 54.5389 85.8705 54.306 85.5283 54.0303L86.2982 52.9752C86.6119 53.2129 86.9256 53.403 87.2393 53.5456C87.5529 53.6881 87.8856 53.7594 88.2373 53.7594C88.6175 53.7594 88.8979 53.6786 89.0785 53.517C89.2591 53.3554 89.3494 53.1558 89.3494 52.9182C89.3494 52.7186 89.2734 52.557 89.1213 52.4334C88.9787 52.3004 88.7934 52.1863 88.5653 52.0912C88.3371 51.9867 88.0995 51.8869 87.8524 51.7918C87.5482 51.6778 87.244 51.5399 86.9399 51.3784C86.6452 51.2073 86.4028 50.9934 86.2127 50.7367C86.0226 50.4706 85.9275 50.1427 85.9275 49.753C85.9275 49.1351 86.1557 48.6313 86.6119 48.2416C87.0682 47.8519 87.686 47.657 88.4654 47.657C88.9597 47.657 89.4017 47.7426 89.7914 47.9137C90.1811 48.0848 90.5186 48.2796 90.8037 48.4983L90.0481 49.4963C89.8009 49.3157 89.549 49.1731 89.2924 49.0686C89.0453 48.9545 88.7839 48.8975 88.5082 48.8975C88.1565 48.8975 87.8951 48.9735 87.724 49.1256C87.5529 49.2682 87.4674 49.4488 87.4674 49.6674C87.4674 49.9431 87.61 50.1522 87.8951 50.2948C88.1803 50.4373 88.513 50.5752 88.8932 50.7082C89.2164 50.8223 89.53 50.9649 89.8342 51.136C90.1384 51.2976 90.3903 51.5114 90.5899 51.7776C90.799 52.0437 90.9035 52.3954 90.9035 52.8327C90.9035 53.4315 90.6707 53.9448 90.2049 54.3725C89.7392 54.7907 89.0643 54.9999 88.1803 54.9999Z" fill="white"/>
<path d="M92.3673 54.8288V44.7627H93.9785V51.0504H94.0212L96.6162 47.8281H98.4127L96.0173 50.6797L98.655 54.8288H96.8728L95.0763 51.7918L93.9785 53.0465V54.8288H92.3673Z" fill="white"/>
<path d="M101.374 54.9999C100.766 54.9999 100.267 54.8098 99.8769 54.4295C99.4967 54.0493 99.3066 53.5551 99.3066 52.9467C99.3066 52.1958 99.6345 51.616 100.29 51.2073C100.946 50.789 101.992 50.5039 103.427 50.3518C103.418 49.9811 103.318 49.6627 103.128 49.3965C102.947 49.1209 102.619 48.983 102.144 48.983C101.802 48.983 101.464 49.0496 101.132 49.1826C100.808 49.3157 100.49 49.4773 100.176 49.6674L99.5775 48.5696C99.9672 48.3224 100.404 48.1085 100.889 47.9279C101.383 47.7473 101.906 47.657 102.458 47.657C103.332 47.657 103.983 47.9184 104.411 48.4412C104.848 48.9545 105.067 49.7007 105.067 50.6797V54.8288H103.712L103.598 54.0588H103.541C103.227 54.325 102.89 54.5484 102.529 54.729C102.177 54.9096 101.792 54.9999 101.374 54.9999ZM101.901 53.7166C102.187 53.7166 102.443 53.6501 102.671 53.517C102.909 53.3745 103.161 53.1844 103.427 52.9467V51.3784C102.477 51.5019 101.816 51.6873 101.445 51.9344C101.075 52.172 100.889 52.4667 100.889 52.8184C100.889 53.1321 100.984 53.3602 101.174 53.5028C101.364 53.6454 101.607 53.7166 101.901 53.7166Z" fill="white"/>
<path d="M56.4637 17.4702C57.088 18.5907 55.8356 20.4786 53.667 21.6863C51.4981 22.8944 49.2342 22.9653 48.6101 21.8446C47.986 20.7242 49.2382 18.8366 51.4068 17.6285C53.5757 16.4207 55.8396 16.3498 56.4637 17.4702Z" fill="white"/>
<path d="M43.5891 21.5933C43.8488 21.7553 43.5073 22.4365 43.5891 23.5508C43.6592 24.5028 44.0012 25.2709 44.1483 25.5083C45.1947 27.1957 51.611 26.6189 56.4522 22.9915C56.7135 22.7958 62.9347 18.0478 61.4857 14.8822C60.6622 13.0828 56.8224 13.6553 56.7319 12.6451C56.6907 12.1865 57.9157 11.5874 60.3672 10.408C62.7578 9.25783 63.6116 9.03263 64.5618 9.00979C65.5908 8.98483 66.6319 8.9596 67.0785 9.56907C67.8728 10.6528 65.9512 12.6029 64.2821 16.5598C63.1394 19.2688 61.9993 21.9715 62.6043 24.949C62.6832 25.3378 63.4788 28.9861 66.5193 30.8212C72.179 34.2374 81.2419 28.728 83.5768 25.7877C84.7275 24.339 86.2919 23.1984 87.2121 21.5933C87.4723 21.1395 88.0032 20.1439 88.6103 20.1951C89.0883 20.2355 89.3913 20.9058 89.4492 21.034C89.7819 21.7707 89.8451 23.4725 85.8139 28.0248C82.4128 31.8656 80.7124 33.7859 77.7046 35.2954C76.6758 35.8117 70.7072 38.6954 64.0025 36.9732C63.9905 36.9701 63.9794 36.9674 63.9664 36.9634C62.8709 36.6339 61.9096 36.2801 61.0465 35.9155C59.43 35.2322 56.0154 33.2814 55.6133 33.0583C51.8301 30.9577 47.961 28.8098 44.428 29.7026C44.0081 29.8088 42.3292 30.2773 40.2334 29.9822C38.6804 29.7637 38.3763 29.3337 38.2762 29.1433C37.868 28.3684 38.5146 27.1646 39.1148 26.0676C39.9155 24.604 40.7794 23.785 41.9112 22.7119C43.1894 21.4998 43.4807 21.5256 43.5891 21.5933Z" fill="#FFE51F"/>
<path d="M79.8672 19.0175C81.2442 20.9455 80.1758 24.0685 77.4811 25.9928C74.7864 27.9168 71.4857 27.9139 70.109 25.9856C68.7321 24.0576 69.8005 20.9346 72.4951 19.0106C75.1898 17.0863 78.4903 17.0895 79.8672 19.0175Z" fill="#FFE51F"/>
</svg>

<svg xmlns="http://www.w3.org/2000/svg" width="128" height="64" fill="none"><rect width="128" height="64" fill="#E3282B" rx="6"/><path fill="#fff" d="M22.933 54.829v-9.325h2.937c.694 0 1.312.09 1.854.271.542.18.97.48 1.283.898.314.419.47.989.47 1.711 0 .685-.156 1.25-.47 1.697-.314.447-.737.78-1.269.998-.532.219-1.136.328-1.81.328h-1.341v3.422h-1.654Zm1.654-4.748h1.212c1.369 0 2.053-.566 2.053-1.697 0-.59-.18-.993-.542-1.212-.351-.228-.874-.342-1.568-.342h-1.155v3.25ZM33.635 55c-.58 0-1.122-.143-1.626-.428a3.38 3.38 0 0 1-1.226-1.255c-.314-.55-.47-1.212-.47-1.981 0-.78.156-1.44.47-1.982.314-.552.723-.97 1.226-1.255a3.166 3.166 0 0 1 1.626-.442c.589 0 1.136.147 1.64.442.503.285.912.703 1.226 1.255.313.541.47 1.202.47 1.982 0 .77-.157 1.43-.47 1.981a3.38 3.38 0 0 1-1.227 1.255 3.272 3.272 0 0 1-1.64.428Zm0-1.34c.513 0 .917-.214 1.212-.642.294-.428.442-.989.442-1.682 0-.704-.148-1.27-.442-1.697-.295-.428-.7-.642-1.212-.642-.514 0-.918.214-1.212.642-.285.428-.428.993-.428 1.697 0 .694.143 1.254.428 1.682.294.428.698.642 1.212.642ZM41.517 55a3.491 3.491 0 0 1-1.725-.428 3.275 3.275 0 0 1-1.212-1.255c-.295-.55-.442-1.212-.442-1.981 0-.78.161-1.44.485-1.982.323-.552.75-.97 1.283-1.255a3.586 3.586 0 0 1 1.74-.442c.446 0 .836.076 1.168.228.333.152.628.338.884.556l-.798 1.07a2.18 2.18 0 0 0-.556-.371 1.351 1.351 0 0 0-.613-.143 1.73 1.73 0 0 0-1.383.642c-.352.428-.528.993-.528 1.697 0 .694.171 1.254.513 1.682.352.428.804.642 1.355.642.276 0 .532-.057.77-.171.247-.124.47-.267.67-.428l.67 1.083a3.307 3.307 0 0 1-1.084.642 3.54 3.54 0 0 1-1.197.214ZM44.624 54.829v-.884l3.308-4.82h-2.938v-1.297h4.99v.87l-3.293 4.819H50.1v1.312h-5.475ZM53.968 55c-.808 0-1.383-.233-1.725-.699-.333-.475-.5-1.088-.5-1.839v-3.336h-.997v-1.227l1.083-.07.2-1.911h1.368v1.91h1.783v1.298h-1.782v3.336c0 .817.327 1.226.983 1.226.124 0 .252-.014.385-.043.133-.038.247-.076.343-.114l.285 1.212a4.65 4.65 0 0 1-.656.171 3.296 3.296 0 0 1-.77.086ZM58.043 55c-.608 0-1.107-.19-1.497-.57-.38-.38-.57-.875-.57-1.483 0-.751.328-1.331.984-1.74.656-.418 1.701-.703 3.136-.855-.009-.37-.109-.69-.299-.955-.18-.276-.508-.414-.984-.414-.342 0-.68.067-1.012.2a6.948 6.948 0 0 0-.955.484l-.6-1.097c.39-.248.828-.462 1.313-.642a4.534 4.534 0 0 1 1.568-.271c.874 0 1.526.261 1.953.784.438.514.656 1.26.656 2.239v4.149h-1.354l-.114-.77h-.057c-.314.266-.652.49-1.013.67a2.49 2.49 0 0 1-1.155.27Zm.528-1.283c.285 0 .542-.067.77-.2a5.07 5.07 0 0 0 .755-.57v-1.569c-.95.124-1.61.31-1.981.556-.371.238-.556.533-.556.884 0 .314.095.542.285.685.19.142.432.214.727.214ZM66.695 54.829v-9.325h2.938c.693 0 1.311.09 1.853.271.542.18.97.48 1.283.898.314.419.47.989.47 1.711 0 .685-.156 1.25-.47 1.697-.314.447-.737.78-1.269.998-.532.219-1.136.328-1.81.328h-1.34v3.422h-1.655Zm1.654-4.748h1.212c1.369 0 2.053-.566 2.053-1.697 0-.59-.18-.993-.541-1.212-.352-.228-.875-.342-1.569-.342H68.35v3.25ZM77.397 55c-.58 0-1.122-.143-1.626-.428a3.38 3.38 0 0 1-1.226-1.255c-.313-.55-.47-1.212-.47-1.981 0-.78.157-1.44.47-1.982.314-.552.723-.97 1.227-1.255a3.166 3.166 0 0 1 1.625-.442c.59 0 1.136.147 1.64.442.503.285.912.703 1.226 1.255.313.541.47 1.202.47 1.982 0 .77-.157 1.43-.47 1.981a3.38 3.38 0 0 1-1.227 1.255 3.272 3.272 0 0 1-1.64.428Zm0-1.34c.513 0 .917-.214 1.212-.642.294-.428.442-.989.442-1.682 0-.704-.148-1.27-.442-1.697-.295-.428-.699-.642-1.212-.642s-.917.214-1.212.642c-.285.428-.428.993-.428 1.697 0 .694.143 1.254.428 1.682.295.428.699.642 1.212.642ZM83.953 55c-.58 0-.993-.176-1.24-.528-.238-.351-.357-.831-.357-1.44v-8.27h1.64v8.356c0 .2.038.342.114.428a.34.34 0 0 0 .242.114h.1c.038-.01.09-.02.157-.029l.214 1.226a2.57 2.57 0 0 1-.87.143ZM88.18 55c-.475 0-.95-.09-1.426-.271a4.752 4.752 0 0 1-1.226-.699l.77-1.055c.314.238.628.428.941.57.314.143.647.214.998.214.38 0 .66-.08.842-.242a.772.772 0 0 0 .27-.599c0-.2-.076-.361-.228-.485a1.85 1.85 0 0 0-.556-.342 12.468 12.468 0 0 0-.713-.3 7.73 7.73 0 0 1-.912-.413 2.375 2.375 0 0 1-.727-.641c-.19-.266-.285-.594-.285-.984 0-.618.228-1.122.684-1.511.456-.39 1.074-.585 1.853-.585.495 0 .937.086 1.326.257.39.17.728.366 1.013.584l-.756.998c-.247-.18-.499-.323-.756-.427a1.849 1.849 0 0 0-.784-.172c-.352 0-.613.077-.784.229a.675.675 0 0 0-.257.541c0 .276.143.485.428.628a8.6 8.6 0 0 0 .998.413c.323.114.637.257.941.428.304.162.556.375.756.642.209.266.313.617.313 1.055 0 .599-.232 1.112-.698 1.54-.466.418-1.14.627-2.025.627ZM92.367 54.829V44.763h1.611v6.287h.043l2.595-3.222h1.797l-2.396 2.852 2.638 4.149h-1.782l-1.797-3.037-1.097 1.255v1.782h-1.612ZM101.374 55c-.608 0-1.107-.19-1.497-.57-.38-.38-.57-.875-.57-1.483 0-.751.328-1.331.983-1.74.656-.418 1.702-.703 3.137-.855a1.674 1.674 0 0 0-.299-.955c-.181-.276-.509-.414-.984-.414-.342 0-.68.067-1.012.2a6.928 6.928 0 0 0-.956.484l-.599-1.097a7 7 0 0 1 1.312-.642 4.533 4.533 0 0 1 1.569-.271c.874 0 1.525.261 1.953.784.437.514.656 1.26.656 2.239v4.149h-1.355l-.114-.77h-.057c-.314.266-.651.49-1.012.67-.352.18-.737.27-1.155.27Zm.527-1.283c.286 0 .542-.067.77-.2.238-.143.49-.333.756-.57v-1.569c-.95.124-1.611.31-1.982.556-.37.238-.556.533-.556.884 0 .314.095.542.285.685.19.142.433.214.727.214ZM56.464 17.47c.624 1.12-.628 3.009-2.797 4.216-2.169 1.208-4.433 1.28-5.057.159-.624-1.12.628-3.008 2.797-4.216 2.169-1.208 4.433-1.28 5.057-.159Z"/><path fill="#FFE51F" d="M43.59 21.593c.259.162-.083.843 0 1.958.07.952.411 1.72.558 1.957 1.047 1.688 7.463 1.11 12.304-2.517.262-.195 6.483-4.943 5.034-8.109-.824-1.8-4.664-1.227-4.754-2.237-.041-.458 1.184-1.058 3.635-2.237 2.39-1.15 3.245-1.375 4.195-1.398 1.029-.025 2.07-.05 2.517.56.794 1.083-1.128 3.033-2.797 6.99-1.143 2.709-2.283 5.412-1.678 8.389.08.389.875 4.037 3.915 5.872 5.66 3.416 14.723-2.093 17.058-5.033 1.15-1.449 2.715-2.59 3.635-4.195.26-.453.791-1.45 1.398-1.398.478.04.781.71.84.839.332.737.395 2.439-3.636 6.99-3.401 3.842-5.102 5.762-8.11 7.271-1.028.517-6.997 3.4-13.701 1.678l-.037-.01a28.71 28.71 0 0 1-2.92-1.047c-1.616-.684-5.03-2.635-5.433-2.858-3.783-2.1-7.652-4.248-11.185-3.355-.42.106-2.099.574-4.195.28-1.553-.22-1.857-.65-1.957-.84-.408-.775.239-1.978.839-3.075.8-1.464 1.664-2.283 2.796-3.356 1.278-1.212 1.57-1.186 1.678-1.119Z"/><path fill="#FFE51F" d="M79.867 19.017c1.377 1.928.309 5.052-2.386 6.976-2.695 1.924-5.995 1.92-7.372-.007-1.377-1.928-.308-5.051 2.386-6.975 2.695-1.925 5.995-1.921 7.372.006Z"/></svg>
